icons/circle/48/okular.svg

<svg xmlns="http://www.w3.org/2000/svg" viewBox="0 0 48 48">
 <defs>
  <linearGradient id="linearGradient3764" x1="1" x2="47" gradientUnits="userSpaceOnUse" gradientTransform="matrix(0,-1,1,0,-1.5e-6,47.999998)">
   <stop style="stop-color:#e4e4e4;stop-opacity:1"/>
   <stop offset="1" style="stop-color:#eee;stop-opacity:1"/>
  </linearGradient>
 </defs>
 <g>
  <path d="m 36.31 5 c 5.859 4.062 9.688 10.831 9.688 18.5 c 0 12.426 -10.07 22.5 -22.5 22.5 c -7.669 0 -14.438 -3.828 -18.5 -9.688 c 1.037 1.822 2.306 3.499 3.781 4.969 c 4.085 3.712 9.514 5.969 15.469 5.969 c 12.703 0 23 -10.298 23 -23 c 0 -5.954 -2.256 -11.384 -5.969 -15.469 c -1.469 -1.475 -3.147 -2.744 -4.969 -3.781 z m 4.969 3.781 c 3.854 4.113 6.219 9.637 6.219 15.719 c 0 12.703 -10.297 23 -23 23 c -6.081 0 -11.606 -2.364 -15.719 -6.219 c 4.16 4.144 9.883 6.719 16.219 6.719 c 12.703 0 23 -10.298 23 -23 c 0 -6.335 -2.575 -12.06 -6.719 -16.219 z" style="opacity:0.05"/>
  <path d="m 41.28 8.781 c 3.712 4.085 5.969 9.514 5.969 15.469 c 0 12.703 -10.297 23 -23 23 c -5.954 0 -11.384 -2.256 -15.469 -5.969 c 4.113 3.854 9.637 6.219 15.719 6.219 c 12.703 0 23 -10.298 23 -23 c 0 -6.081 -2.364 -11.606 -6.219 -15.719 z" style="opacity:0.1"/>
  <path d="m 31.25 2.375 c 8.615 3.154 14.75 11.417 14.75 21.13 c 0 12.426 -10.07 22.5 -22.5 22.5 c -9.708 0 -17.971 -6.135 -21.12 -14.75 a 23 23 0 0 0 44.875 -7 a 23 23 0 0 0 -16 -21.875 z" style="opacity:0.2"/>
 </g>
 <g>
  <path d="m 24 1 c 12.703 0 23 10.297 23 23 c 0 12.703 -10.297 23 -23 23 -12.703 0 -23 -10.297 -23 -23 0 -12.703 10.297 -23 23 -23 z" style="fill:url(#linearGradient3764);fill-opacity:1"/>
  <path d="m 26.445 1.131 c -0.126 0.247 -1.461 2.865 -1.473 2.865 l -0.004 0.004 c -2.657 4.877 -4.315 10.09 -4.611 14.631 a 8.5 8.5 0 0 0 -2.357 5.869 a 8.5 8.5 0 0 0 1.84 5.27 l -4.055 4.063 l 1.387 1.387 l 4.051 -4.057 a 8.5 8.5 0 0 0 5.277 1.838 a 8.5 8.5 0 0 0 5.654 -2.164 c 3.643 -0.418 8.2 -1.925 13.824 -4.883 c 0.244 -0.146 0.595 -0.308 0.969 -0.469 c 0.031 -0.491 0.053 -0.985 0.053 -1.484 c 0 -1.828 -0.22 -3.602 -0.623 -5.307 c -0.418 0.489 -0.878 1.033 -1 1.178 c -4.062 4.752 -7.981 7.465 -11.287 8.463 a 8.5 8.5 0 0 0 0.914 -3.834 a 8.5 8.5 0 0 0 -8.5 -8.5 a 8.5 8.5 0 0 0 -1 0.066 c 0.743 -3.29 2.249 -7.132 4.686 -11.434 c -0.003 0.003 0.72 -1.296 1.318 -2.373 c -1.613 -0.557 -3.305 -0.944 -5.059 -1.129 z m 0.055 16.369 a 7 7 0 0 1 7 7 a 7 7 0 0 1 -1.439 4.238 c -5.02 0.455 -8.06 -3.689 -6.865 -11.11 a 7 7 0 0 1 1.305 -0.127 z m -6.158 3.676 c 0.318 5.428 3.02 9.395 8.9 9.756 a 7 7 0 0 1 -2.742 0.568 a 7 7 0 0 1 -7 -7 a 7 7 0 0 1 0.842 -3.324 z m -4.967 12.48 l -4.363 4.371 l 1.973 1.98 l 4.367 -4.371 l -1.977 -1.98 z" style="fill:#000;fill-opacity:0.098"/>
  <path d="m 24.986 1.025 c -0.454 0.888 -1.01 1.971 -1.014 1.971 l -0.004 0.004 c -8.898 16.332 -6.723 36.535 21.01 21.953 c 0.499 -0.298 1.322 -0.629 2.02 -0.893 c 0 -0.02 0.002 -0.04 0.002 -0.061 c 0 -2.424 -0.377 -4.759 -1.072 -6.953 c -0.73 0.857 -1.36 1.6 -1.555 1.824 c -14.973 17.516 -28.09 7.535 -15.188 -15.238 c -0.002 0.002 0.496 -0.893 0.992 -1.787 c -1.663 -0.463 -3.4 -0.745 -5.191 -0.82 z" style="fill:#2f93cf;fill-opacity:1"/>
 </g>
 <g>
  <g>
   <g transform="translate(1,1)">
    <g style="opacity:0.1">
     <!-- color: #eeeeee -->
    </g>
   </g>
  </g>
 </g>
 <g>
  <g>
   <!-- color: #eeeeee -->
   <g>
    <path d="m 16.352 34.637 l -1.977 -1.98 l -4.363 4.371 l 1.973 1.98 m 4.367 -4.371" style="fill:#2e3436;fill-opacity:1;stroke:none;fill-rule:nonzero"/>
    <path d="m 20.535 29.848 l -1.387 -1.387 l -4.363 4.371 l 1.387 1.387 m 4.363 -4.371" style="fill:#2e3436;fill-opacity:1;stroke:none;fill-rule:nonzero"/>
    <path d="M 24.26 16.311 A 8.5 8.5 0 0 0 19.326 19.945 C 19.372 20.954 19.503 21.91 19.715 22.809 A 7 7 0 0 1 24.03 17.955 C 24.08 17.426 24.16 16.877 24.26 16.311 z M 34.699 26.729 C 34.07 27.01 33.454 27.24 32.861 27.406 A 7 7 0 0 1 30.998 29.854 C 31.754 29.773 32.545 29.649 33.383 29.469 A 8.5 8.5 0 0 0 34.699 26.729 z" style="fill:#000;fill-opacity:0.098;stroke:none;fill-rule:nonzero"/>
   </g>
  </g>
 </g>
 <g>
  <path d="m 40.03 7.531 c 3.712 4.084 5.969 9.514 5.969 15.469 0 12.703 -10.297 23 -23 23 c -5.954 0 -11.384 -2.256 -15.469 -5.969 4.178 4.291 10.01 6.969 16.469 6.969 c 12.703 0 23 -10.298 23 -23 0 -6.462 -2.677 -12.291 -6.969 -16.469 z" style="opacity:0.1"/>
 </g>
 <path d="M 25.5 15 A 8.5 8.5 0 0 0 17 23.5 A 8.5 8.5 0 0 0 25.5 32 A 8.5 8.5 0 0 0 34 23.5 A 8.5 8.5 0 0 0 25.5 15 z M 25.5 16.5 A 7 7 0 0 1 32.5 23.5 A 7 7 0 0 1 25.5 30.5 A 7 7 0 0 1 18.5 23.5 A 7 7 0 0 1 25.5 16.5 z" style="fill:#2e3436;opacity:1;fill-opacity:1;stroke:none"/>
</svg>

<svg xmlns="http://www.w3.org/2000/svg" viewBox="0 0 48 48">
  <defs>
    <linearGradient id="a" x1="1" x2="47" gradientUnits="userSpaceOnUse" gradientTransform="rotate(-90 24 24)">
      <stop stop-color="#e4e4e4"/>
      <stop offset="1" stop-color="#eee"/>
    </linearGradient>
  </defs>
  <path d="M36.31 5c5.859 4.062 9.688 10.831 9.688 18.5 0 12.426-10.07 22.5-22.5 22.5-7.669 0-14.438-3.828-18.5-9.688a23.24 23.24 0 0 0 3.781 4.969 22.923 22.923 0 0 0 15.469 5.969c12.703 0 23-10.298 23-23a22.92 22.92 0 0 0-5.969-15.469A23.216 23.216 0 0 0 36.31 5zm4.969 3.781A22.911 22.911 0 0 1 47.498 24.5c0 12.703-10.297 23-23 23a22.909 22.909 0 0 1-15.719-6.219C12.939 45.425 18.662 48 24.998 48c12.703 0 23-10.298 23-23 0-6.335-2.575-12.06-6.719-16.219z" opacity=".05"/>
  <path d="M41.28 8.781a22.923 22.923 0 0 1 5.969 15.469c0 12.703-10.297 23-23 23A22.92 22.92 0 0 1 8.78 41.281 22.911 22.911 0 0 0 24.499 47.5c12.703 0 23-10.298 23-23A22.909 22.909 0 0 0 41.28 8.781z" opacity=".1"/>
  <path d="M31.25 2.375C39.865 5.529 46 13.792 46 23.505c0 12.426-10.07 22.5-22.5 22.5-9.708 0-17.971-6.135-21.12-14.75a23 23 0 0 0 44.875-7 23 23 0 0 0-16-21.875z" opacity=".2"/>
  <path d="M24 1c12.703 0 23 10.297 23 23S36.703 47 24 47 1 36.703 1 24 11.297 1 24 1z" fill="url(#a)"/>
  <path d="M26.445 1.131c-.126.247-1.461 2.865-1.473 2.865L24.968 4c-2.657 4.877-4.315 10.09-4.611 14.631A8.5 8.5 0 0 0 18 24.5a8.5 8.5 0 0 0 1.84 5.27l-4.055 4.063 1.387 1.387 4.051-4.057a8.5 8.5 0 0 0 5.277 1.838 8.5 8.5 0 0 0 5.654-2.164c3.643-.418 8.2-1.925 13.824-4.883.244-.146.595-.308.969-.469.031-.491.053-.985.053-1.484 0-1.828-.22-3.602-.623-5.307-.418.489-.878 1.033-1 1.178-4.062 4.752-7.981 7.465-11.287 8.463a8.5 8.5 0 0 0 .914-3.834 8.5 8.5 0 0 0-8.5-8.5 8.5 8.5 0 0 0-1 .066c.743-3.29 2.249-7.132 4.686-11.434-.003.003.72-1.296 1.318-2.373a22.816 22.816 0 0 0-5.059-1.129zM26.5 17.5a7 7 0 0 1 7 7 7 7 0 0 1-1.439 4.238c-5.02.455-8.06-3.689-6.865-11.11a7 7 0 0 1 1.305-.127zm-6.158 3.676c.318 5.428 3.02 9.395 8.9 9.756a7 7 0 0 1-2.742.568 7 7 0 0 1-7-7 7 7 0 0 1 .842-3.324zm-4.967 12.48l-4.363 4.371 1.973 1.98 4.367-4.371-1.977-1.98z" fill-opacity=".098"/>
  <path d="M24.986 1.025c-.454.888-1.01 1.971-1.014 1.971L23.968 3c-8.898 16.332-6.723 36.535 21.01 21.953.499-.298 1.322-.629 2.02-.893l.002-.061c0-2.424-.377-4.759-1.072-6.953-.73.857-1.36 1.6-1.555 1.824C29.4 36.386 16.283 26.405 29.185 3.632l.992-1.787a22.906 22.906 0 0 0-5.191-.82z" fill="#2f93cf"/>
  <g>
    <path d="M16.352 34.637l-1.977-1.98-4.363 4.371 1.973 1.98m4.367-4.371M20.535 29.848l-1.387-1.387-4.363 4.371 1.387 1.387m4.363-4.371" fill="#2e3436"/>
    <path d="M24.26 16.311a8.5 8.5 0 0 0-4.934 3.634c.046 1.009.177 1.965.389 2.864a7 7 0 0 1 4.315-4.854c.05-.529.13-1.078.23-1.644zm10.439 10.418c-.629.281-1.245.511-1.838.677a7 7 0 0 1-1.863 2.448 22.973 22.973 0 0 0 2.385-.385 8.5 8.5 0 0 0 1.316-2.74z" fill-opacity=".098"/>
  </g>
  <g>
    <path d="M40.03 7.531A22.922 22.922 0 0 1 45.999 23c0 12.703-10.297 23-23 23A22.92 22.92 0 0 1 7.53 40.031C11.708 44.322 17.54 47 23.999 47c12.703 0 23-10.298 23-23 0-6.462-2.677-12.291-6.969-16.469z" opacity=".1"/>
  </g>
  <path d="M25.5 15a8.5 8.5 0 0 0-8.5 8.5 8.5 8.5 0 0 0 8.5 8.5 8.5 8.5 0 0 0 8.5-8.5 8.5 8.5 0 0 0-8.5-8.5zm0 1.5a7 7 0 0 1 7 7 7 7 0 0 1-7 7 7 7 0 0 1-7-7 7 7 0 0 1 7-7z" fill="#2e3436"/>
</svg>
